contributed-vectors/mullvad_vpn.svg

<?xml version="1.0" encoding="UTF-8" standalone="no"?>
<svg
   width="100%"
   height="100%"
   viewBox="0 0 192 192"
   version="1.1"
   xml:space="preserve"
   style="fill-rule:evenodd;clip-rule:evenodd;stroke-linejoin:round;stroke-miterlimit:2;"
   id="svg28231"
   sodipodi:docname="mullvad_vpn.svg"
   inkscape:version="1.2 (dc2aedaf03, 2022-05-15)"
   inkscape:export-filename="mullvad_vpn.png"
   inkscape:export-xdpi="96"
   inkscape:export-ydpi="96"
   xmlns:inkscape="http://www.inkscape.org/namespaces/inkscape"
   xmlns:sodipodi="http://sodipodi.sourceforge.net/DTD/sodipodi-0.dtd"
   xmlns="http://www.w3.org/2000/svg"
   xmlns:svg="http://www.w3.org/2000/svg"><defs
   id="defs28235" /><sodipodi:namedview
   id="namedview28233"
   pagecolor="#505050"
   bordercolor="#eeeeee"
   borderopacity="1"
   inkscape:showpageshadow="0"
   inkscape:pageopacity="0"
   inkscape:pagecheckerboard="0"
   inkscape:deskcolor="#505050"
   showgrid="false"
   inkscape:zoom="1.7383042"
   inkscape:cx="-84.565176"
   inkscape:cy="32.215305"
   inkscape:window-width="1884"
   inkscape:window-height="1052"
   inkscape:window-x="36"
   inkscape:window-y="0"
   inkscape:window-maximized="1"
   inkscape:current-layer="svg28231" />
    <path
   id="bg"
   d="m 7.5000481,96.0001 c 0,48.90977 39.6603559,88.50005 88.5000519,88.50005 48.8397,0 88.50005,-39.59028 88.50005,-88.50005 0,-48.909767 -39.59028,-88.5000519 -88.50005,-88.5000519 -48.909767,0 -88.5000519,39.5902849 -88.5000519,88.5000519 z"
   style="fill:#54688c;stroke-width:0.700713" /><g
   id="g30535"
   transform="matrix(0.7779293,0,0,0.7779293,22.773856,21.318799)"><path
     id="Mullvad_Fur"
     d="m 35.361014,84.472544 5.474306,-7.641219 c 0,0.05702 -0.342144,11.005637 -0.342144,11.005637 l 1.539649,-8.268484 c 4.561921,9.237892 15.73863,22.011272 25.94593,28.854152 1.083457,0.74132 1.995841,1.53965 2.623106,2.33799 1.311552,0.51322 2.623105,0.79834 3.934657,1.02643 0.684289,0.11405 1.425601,0.17107 2.109889,0.2281 0.684288,0.057 1.425601,0.057 2.109889,0.057 0.684288,0 1.368577,-0.057 2.052865,-0.11405 0.684288,-0.057 1.368576,-0.17107 2.052865,-0.28512 0.684288,-0.11404 1.368576,-0.22809 1.995841,-0.45619 0.684288,-0.17107 1.311552,-0.34214 1.99584,-0.57024 0.627265,-0.17107 1.311553,-0.45619 1.938817,-0.68429 0.627264,-0.28512 1.254529,-0.51321 1.881793,-0.85536 0.627264,-0.34214 1.254529,-0.62726 1.824769,-0.96941 0.627264,-0.28512 1.197504,-0.68428 1.824769,-1.02643 0.627264,-0.34214 1.197504,-0.74131 1.824768,-1.08345 0.627265,-0.34215 1.197505,-0.74132 1.767745,-1.08346 0.57024,-0.39917 1.197505,-0.74131 1.767745,-1.14048 0.570237,-0.39917 1.197507,-0.74131 1.824767,-1.14048 l 0.57024,-0.34215 0.28512,0.17108 4.10573,2.73715 -4.16275,-1.08346 c -0.39917,0.45619 -0.79834,0.91239 -1.25453,1.36858 -0.51322,0.51322 -1.083457,1.02643 -1.596673,1.53965 -0.570241,0.45619 -1.140481,0.96941 -1.767745,1.36857 -0.627264,0.4562 -1.197505,0.85536 -1.881793,1.25453 -1.254528,0.79834 -2.623105,1.48263 -4.048706,2.05287 -0.684288,0.28512 -1.4256,0.57024 -2.109888,0.79833 -0.741313,0.2281 -1.425601,0.4562 -2.166913,0.62727 -0.741313,0.17107 -1.482625,0.34214 -2.223937,0.45619 -0.741313,0.11405 -1.482625,0.17107 -2.223937,0.28512 -1.482625,0.057 -3.022273,0.057 -4.504898,-0.17107 -0.741312,-0.11405 -1.482625,-0.2281 -2.223937,-0.39917 -0.741312,-0.17107 -1.425601,-0.39917 -2.109889,-0.62726 -1.197504,-0.4562 -2.395009,-1.02644 -3.478465,-1.71072 0,0 -3.934658,0.57024 -2.337985,3.53549 1.596672,2.96524 3.991681,2.68012 2.851201,6.15859 -0.798336,1.88179 -1.938817,3.70656 -3.193346,5.41728 -2.623105,3.53549 -6.728834,6.67181 -6.329666,8.55361 18.646856,22.98068 60.673557,19.78733 76.640287,-0.74132 -0.2281,-2.96525 -4.90406,-4.39085 -8.15443,-11.6329 0.91238,0.28512 2.28096,0.68429 2.28096,0.62727 0,-0.057 -3.87764,-6.32967 -4.04871,-6.95693 l 2.50906,0.17107 c 0,0 -3.3074,-4.10573 -3.42144,-4.5049 l 3.36441,-0.45619 c 0,0 -4.21977,-4.84704 -4.2768,-5.24621 l 4.2768,0.68429 -4.67597,-5.64538 h 2.22394 l -2.6231,-3.820612 c -0.4562,-0.171072 -0.91239,-0.28512 -1.36858,-0.399168 -0.57024,-0.171073 -1.14048,-0.342145 -1.71072,-0.513217 -6.38669,-1.995841 -12.43124,-3.820609 -18.24769,-7.470147 C 96.319695,83.674208 89.02062,77.458589 83.546314,72.611547 L 72.540677,67.251289 C 61.991233,66.452953 52.069053,66.738073 46.024506,67.935577 l 3.877634,-6.614786 -5.930499,7.128003 c -0.399168,-0.114048 -0.513216,-0.342145 -0.513216,-0.342145 l 0.399168,-8.781699 -1.881792,7.926339 c -0.570241,-0.28512 -1.254529,-0.399168 -1.938817,-0.399168 -2.623105,0 -4.732994,2.109889 -4.732994,4.732994 0,2.395009 1.767744,4.39085 4.105729,4.67597 z"
     style="fill:#c39a54;stroke-width:0.57024" /><path
     id="Mullvad_Nose"
     d="m 41.975801,67.137241 c -0.570241,-0.228096 -1.254529,-0.399168 -1.881793,-0.399168 -2.623105,0 -4.732994,2.109889 -4.732994,4.732994 0,2.280961 1.653696,4.219778 3.820609,4.67597 h 0.114048 c 1.425601,-0.456192 4.276802,-4.276802 3.82061,-6.671811 -0.171072,-0.85536 -0.57024,-1.653697 -1.14048,-2.337985 z"
     style="fill:#fdf5d9;stroke-width:0.57024" /><path
     id="Mullvad_Helmet"
     d="m 83.546314,61.035671 c -0.85536,-2.337985 -0.627264,-5.360259 0.57024,-8.21146 1.710721,-3.934658 4.96109,-6.557763 8.040388,-6.557763 0.627264,0 1.197504,0.114048 1.767744,0.342144 1.767745,-1.596672 3.82061,-2.908225 6.101574,-3.820609 12.60231,-5.018114 31.02107,3.934657 35.75406,16.308871 2.28096,5.987522 1.59667,12.545285 -0.34214,18.532807 -1.59668,4.904067 -7.41313,11.975046 -5.24621,17.335304 C 129.33661,94.736869 111.31701,89.148514 106.2989,85.955169 98.258512,80.937055 91.016461,74.77846 85.599179,69.988442 L 85.428107,69.81737 67.123395,61.149719 c -0.228096,-0.114048 -0.456192,-0.228097 -0.627264,-0.342145 2.623105,0 12.602309,1.197505 17.050183,0.228097"
     style="fill:#f9de81;stroke-width:0.57024" /><path
     d="m 88.963596,63.088535 c -0.513216,0 -0.969408,-0.114048 -1.311552,-0.28512 -0.912385,-0.399168 -1.596673,-1.14048 -2.052865,-2.280961 -0.798336,-1.938817 -0.57024,-4.618946 0.513216,-7.128003 1.425601,-3.250369 4.10573,-5.53133 6.557763,-5.53133 0.456192,0 0.912384,0.114048 1.368576,0.28512 1.197505,0.513216 2.052865,1.710721 2.337985,3.421442 0.342145,1.824768 0.05702,3.934657 -0.85536,5.930498 -1.425601,3.250369 -4.162754,5.588354 -6.557763,5.588354 z"
     style="fill:#ffffff;fill-rule:nonzero;stroke-width:0.57024"
     id="path28221" /><g
     id="g28225"
     transform="matrix(0.57024024,0,0,0.57024024,-16.302752,-20.964876)"
     style="fill:#56595b;fill-opacity:1">
                    <path
   d="m 191,122.3 c 0.6,0 1.2,0.1 1.8,0.4 1.6,0.7 2.8,2.5 3.2,4.9 0.5,2.9 0.1,6.3 -1.4,9.5 -2.2,5.1 -6.5,8.8 -10.1,8.8 -0.6,0 -1.2,-0.1 -1.7,-0.3 -1.5,-0.6 -2.3,-2 -2.7,-3.1 -1.2,-3 -0.9,-7.4 0.8,-11.4 2.3,-5.1 6.5,-8.8 10.1,-8.8 m 0,-3 c -4.8,0 -10.1,4.4 -12.9,10.7 -2.1,4.7 -2.4,9.8 -0.9,13.7 0.9,2.3 2.4,3.9 4.3,4.8 0.9,0.4 1.9,0.6 3,0.6 4.8,0 10.1,-4.4 12.8,-10.7 1.7,-3.8 2.2,-7.8 1.6,-11.3 -0.6,-3.5 -2.4,-6 -5,-7.1 -0.8,-0.5 -1.8,-0.7 -2.9,-0.7 z"
   style="fill:#56595b;fill-opacity:1;fill-rule:nonzero"
   id="path28223" />
                </g></g>
<g
   style="clip-rule:evenodd;fill-rule:evenodd;stroke-linejoin:round;stroke-miterlimit:2"
   id="g166"
   transform="translate(-1e-4,-226.01187)"><g
     id="Logo"
     transform="matrix(0.700713,0,0,0.700713,-44.1425,-44.1425)">
        <path
   id="bg-3"
   d="m 73.7,200 c 0,69.8 56.6,126.3 126.3,126.3 69.7,0 126.3,-56.5 126.3,-126.3 C 326.3,130.2 269.8,73.7 200,73.7 130.2,73.7 73.7,130.2 73.7,200 Z"
   style="fill:#54688c" />
        <g
   transform="matrix(0.8138,0,0,0.8138,39.7306,33.0772)"
   id="g147">
            <path
   id="Mullvad_Fur-6"
   d="m 90.6,184.9 9.6,-13.4 c 0,0.1 -0.6,19.3 -0.6,19.3 l 2.7,-14.5 c 8,16.2 27.6,38.6 45.5,50.6 1.9,1.3 3.5,2.7 4.6,4.1 2.3,0.9 4.6,1.4 6.9,1.8 1.2,0.2 2.5,0.3 3.7,0.4 1.2,0.1 2.5,0.1 3.7,0.1 1.2,0 2.4,-0.1 3.6,-0.2 1.2,-0.1 2.4,-0.3 3.6,-0.5 1.2,-0.2 2.4,-0.4 3.5,-0.8 1.2,-0.3 2.3,-0.6 3.5,-1 1.1,-0.3 2.3,-0.8 3.4,-1.2 1.1,-0.5 2.2,-0.9 3.3,-1.5 1.1,-0.6 2.2,-1.1 3.2,-1.7 1.1,-0.5 2.1,-1.2 3.2,-1.8 1.1,-0.6 2.1,-1.3 3.2,-1.9 1.1,-0.6 2.1,-1.3 3.1,-1.9 1,-0.7 2.1,-1.3 3.1,-2 1,-0.7 2.1,-1.3 3.2,-2 l 1,-0.6 0.5,0.3 7.2,4.8 -7.3,-1.9 c -0.7,0.8 -1.4,1.6 -2.2,2.4 -0.9,0.9 -1.9,1.8 -2.8,2.7 -1,0.8 -2,1.7 -3.1,2.4 -1.1,0.8 -2.1,1.5 -3.3,2.2 -2.2,1.4 -4.6,2.6 -7.1,3.6 -1.2,0.5 -2.5,1 -3.7,1.4 -1.3,0.4 -2.5,0.8 -3.8,1.1 -1.3,0.3 -2.6,0.6 -3.9,0.8 -1.3,0.2 -2.6,0.3 -3.9,0.5 -2.6,0.1 -5.3,0.1 -7.9,-0.3 -1.3,-0.2 -2.6,-0.4 -3.9,-0.7 -1.3,-0.3 -2.5,-0.7 -3.7,-1.1 -2.1,-0.8 -4.2,-1.8 -6.1,-3 0,0 -6.9,1 -4.1,6.2 2.8,5.2 7,4.7 5,10.8 -1.4,3.3 -3.4,6.5 -5.6,9.5 -4.6,6.2 -11.8,11.7 -11.1,15 32.7,40.3 106.4,34.7 134.4,-1.3 -0.4,-5.2 -8.6,-7.7 -14.3,-20.4 1.6,0.5 4,1.2 4,1.1 0,-0.1 -6.8,-11.1 -7.1,-12.2 l 4.4,0.3 c 0,0 -5.8,-7.2 -6,-7.9 l 5.9,-0.8 c 0,0 -7.4,-8.5 -7.5,-9.2 l 7.5,1.2 -8.2,-9.9 h 3.9 l -4.6,-6.7 c -0.8,-0.3 -1.6,-0.5 -2.4,-0.7 -1,-0.3 -2,-0.6 -3,-0.9 -11.2,-3.5 -21.8,-6.7 -32,-13.1 -14.3,-8.9 -27.1,-19.8 -36.7,-28.3 l -19.3,-9.4 c -18.5,-1.4 -35.9,-0.9 -46.5,1.2 l 6.8,-11.6 -10.4,12.5 c -0.7,-0.2 -0.9,-0.6 -0.9,-0.6 l 0.7,-15.4 -3.3,13.9 c -1,-0.5 -2.2,-0.7 -3.4,-0.7 -4.6,0 -8.3,3.7 -8.3,8.3 0,4.2 3.1,7.7 7.2,8.2 z"
   style="fill:#c39a54" />
            <path
   id="Mullvad_Nose-7"
   d="m 102.2,154.5 c -1,-0.4 -2.2,-0.7 -3.3,-0.7 -4.6,0 -8.3,3.7 -8.3,8.3 0,4 2.9,7.4 6.7,8.2 h 0.2 c 2.5,-0.8 7.5,-7.5 6.7,-11.7 -0.3,-1.5 -1,-2.9 -2,-4.1 z"
   style="fill:#fdf5d9" />
            <path
   id="Mullvad_Helmet-5"
   d="m 175.1,143.8 c -1.5,-4.1 -1.1,-9.4 1,-14.4 3,-6.9 8.7,-11.5 14.1,-11.5 1.1,0 2.1,0.2 3.1,0.6 3.1,-2.8 6.7,-5.1 10.7,-6.7 22.1,-8.8 54.4,6.9 62.7,28.6 4,10.5 2.8,22 -0.6,32.5 -2.8,8.6 -13,21 -9.2,30.4 -1.5,-0.4 -33.1,-10.2 -41.9,-15.8 -14.1,-8.8 -26.8,-19.6 -36.3,-28 l -0.3,-0.3 -32.1,-15.2 c -0.4,-0.2 -0.8,-0.4 -1.1,-0.6 4.6,0 22.1,2.1 29.9,0.4"
   style="fill:#f9de81" />
            <g
   id="Helmet_Lamp">
                <path
   d="m 184.6,147.4 c -0.9,0 -1.7,-0.2 -2.3,-0.5 -1.6,-0.7 -2.8,-2 -3.6,-4 -1.4,-3.4 -1,-8.1 0.9,-12.5 2.5,-5.7 7.2,-9.7 11.5,-9.7 0.8,0 1.6,0.2 2.4,0.5 2.1,0.9 3.6,3 4.1,6 0.6,3.2 0.1,6.9 -1.5,10.4 -2.5,5.7 -7.3,9.8 -11.5,9.8 z"
   style="fill:#ffffff;fill-rule:nonzero"
   id="path140" />
                <g
   id="g144">
                    <path
   d="m 191,122.3 c 0.6,0 1.2,0.1 1.8,0.4 1.6,0.7 2.8,2.5 3.2,4.9 0.5,2.9 0.1,6.3 -1.4,9.5 -2.2,5.1 -6.5,8.8 -10.1,8.8 -0.6,0 -1.2,-0.1 -1.7,-0.3 -1.5,-0.6 -2.3,-2 -2.7,-3.1 -1.2,-3 -0.9,-7.4 0.8,-11.4 2.3,-5.1 6.5,-8.8 10.1,-8.8 m 0,-3 c -4.8,0 -10.1,4.4 -12.9,10.7 -2.1,4.7 -2.4,9.8 -0.9,13.7 0.9,2.3 2.4,3.9 4.3,4.8 0.9,0.4 1.9,0.6 3,0.6 4.8,0 10.1,-4.4 12.8,-10.7 1.7,-3.8 2.2,-7.8 1.6,-11.3 -0.6,-3.5 -2.4,-6 -5,-7.1 -0.8,-0.5 -1.8,-0.7 -2.9,-0.7 z"
   style="fill:#4a4a4a;fill-rule:nonzero"
   id="path142" />
                </g>
            </g>
        </g>
    </g></g></svg>

<?xml version="1.0" encoding="UTF-8" standalone="no"?>
<!DOCTYPE svg PUBLIC "-//W3C//DTD SVG 1.1//EN" "http://www.w3.org/Graphics/SVG/1.1/DTD/svg11.dtd">
<svg width="100%" height="100%" viewBox="0 0 192 192" version="1.1" xmlns="http://www.w3.org/2000/svg" xmlns:xlink="http://www.w3.org/1999/xlink" xml:space="preserve" xmlns:serif="http://www.serif.com/" style="fill-rule:evenodd;clip-rule:evenodd;stroke-linejoin:round;stroke-miterlimit:2;">
    <g id="Logo" transform="matrix(0.700713,0,0,0.700713,-44.1425,-44.1425)">
        <path id="bg" d="M73.7,200C73.7,269.8 130.3,326.3 200,326.3C269.7,326.3 326.3,269.8 326.3,200C326.3,130.2 269.8,73.7 200,73.7C130.2,73.7 73.7,130.2 73.7,200Z" style="fill:rgb(84,104,140);"/>
        <g transform="matrix(0.8138,0,0,0.8138,39.7306,33.0772)">
            <path id="Mullvad_Fur" d="M90.6,184.9L100.2,171.5C100.2,171.6 99.6,190.8 99.6,190.8L102.3,176.3C110.3,192.5 129.9,214.9 147.8,226.9C149.7,228.2 151.3,229.6 152.4,231C154.7,231.9 157,232.4 159.3,232.8C160.5,233 161.8,233.1 163,233.2C164.2,233.3 165.5,233.3 166.7,233.3C167.9,233.3 169.1,233.2 170.3,233.1C171.5,233 172.7,232.8 173.9,232.6C175.1,232.4 176.3,232.2 177.4,231.8C178.6,231.5 179.7,231.2 180.9,230.8C182,230.5 183.2,230 184.3,229.6C185.4,229.1 186.5,228.7 187.6,228.1C188.7,227.5 189.8,227 190.8,226.4C191.9,225.9 192.9,225.2 194,224.6C195.1,224 196.1,223.3 197.2,222.7C198.3,222.1 199.3,221.4 200.3,220.8C201.3,220.1 202.4,219.5 203.4,218.8C204.4,218.1 205.5,217.5 206.6,216.8L207.6,216.2L208.1,216.5L215.3,221.3L208,219.4C207.3,220.2 206.6,221 205.8,221.8C204.9,222.7 203.9,223.6 203,224.5C202,225.3 201,226.2 199.9,226.9C198.8,227.7 197.8,228.4 196.6,229.1C194.4,230.5 192,231.7 189.5,232.7C188.3,233.2 187,233.7 185.8,234.1C184.5,234.5 183.3,234.9 182,235.2C180.7,235.5 179.4,235.8 178.1,236C176.8,236.2 175.5,236.3 174.2,236.5C171.6,236.6 168.9,236.6 166.3,236.2C165,236 163.7,235.8 162.4,235.5C161.1,235.2 159.9,234.8 158.7,234.4C156.6,233.6 154.5,232.6 152.6,231.4C152.6,231.4 145.7,232.4 148.5,237.6C151.3,242.8 155.5,242.3 153.5,248.4C152.1,251.7 150.1,254.9 147.9,257.9C143.3,264.1 136.1,269.6 136.8,272.9C169.5,313.2 243.2,307.6 271.2,271.6C270.8,266.4 262.6,263.9 256.9,251.2C258.5,251.7 260.9,252.4 260.9,252.3C260.9,252.2 254.1,241.2 253.8,240.1L258.2,240.4C258.2,240.4 252.4,233.2 252.2,232.5L258.1,231.7C258.1,231.7 250.7,223.2 250.6,222.5L258.1,223.7L249.9,213.8L253.8,213.8L249.2,207.1C248.4,206.8 247.6,206.6 246.8,206.4C245.8,206.1 244.8,205.8 243.8,205.5C232.6,202 222,198.8 211.8,192.4C197.5,183.5 184.7,172.6 175.1,164.1L155.8,154.7C137.3,153.3 119.9,153.8 109.3,155.9L116.1,144.3L105.7,156.8C105,156.6 104.8,156.2 104.8,156.2L105.5,140.8L102.2,154.7C101.2,154.2 100,154 98.8,154C94.2,154 90.5,157.7 90.5,162.3C90.5,166.5 93.6,170 97.7,170.5L90.6,184.9Z" style="fill:rgb(195,154,84);"/>
            <path id="Mullvad_Nose" d="M102.2,154.5C101.2,154.1 100,153.8 98.9,153.8C94.3,153.8 90.6,157.5 90.6,162.1C90.6,166.1 93.5,169.5 97.3,170.3L97.5,170.3C100,169.5 105,162.8 104.2,158.6C103.9,157.1 103.2,155.7 102.2,154.5Z" style="fill:rgb(253,245,217);"/>
            <path id="Mullvad_Helmet" d="M175.1,143.8C173.6,139.7 174,134.4 176.1,129.4C179.1,122.5 184.8,117.9 190.2,117.9C191.3,117.9 192.3,118.1 193.3,118.5C196.4,115.7 200,113.4 204,111.8C226.1,103 258.4,118.7 266.7,140.4C270.7,150.9 269.5,162.4 266.1,172.9C263.3,181.5 253.1,193.9 256.9,203.3C255.4,202.9 223.8,193.1 215,187.5C200.9,178.7 188.2,167.9 178.7,159.5L178.4,159.2L146.3,144C145.9,143.8 145.5,143.6 145.2,143.4C149.8,143.4 167.3,145.5 175.1,143.8" style="fill:rgb(249,222,129);"/>
            <g id="Helmet_Lamp">
                <path d="M184.6,147.4C183.7,147.4 182.9,147.2 182.3,146.9C180.7,146.2 179.5,144.9 178.7,142.9C177.3,139.5 177.7,134.8 179.6,130.4C182.1,124.7 186.8,120.7 191.1,120.7C191.9,120.7 192.7,120.9 193.5,121.2C195.6,122.1 197.1,124.2 197.6,127.2C198.2,130.4 197.7,134.1 196.1,137.6C193.6,143.3 188.8,147.4 184.6,147.4Z" style="fill:white;fill-rule:nonzero;"/>
                <g>
                    <path d="M191,122.3C191.6,122.3 192.2,122.4 192.8,122.7C194.4,123.4 195.6,125.2 196,127.6C196.5,130.5 196.1,133.9 194.6,137.1C192.4,142.2 188.1,145.9 184.5,145.9C183.9,145.9 183.3,145.8 182.8,145.6C181.3,145 180.5,143.6 180.1,142.5C178.9,139.5 179.2,135.1 180.9,131.1C183.2,126 187.4,122.3 191,122.3M191,119.3C186.2,119.3 180.9,123.7 178.1,130C176,134.7 175.7,139.8 177.2,143.7C178.1,146 179.6,147.6 181.5,148.5C182.4,148.9 183.4,149.1 184.5,149.1C189.3,149.1 194.6,144.7 197.3,138.4C199,134.6 199.5,130.6 198.9,127.1C198.3,123.6 196.5,121.1 193.9,120C193.1,119.5 192.1,119.3 191,119.3Z" style="fill:rgb(74,74,74);fill-rule:nonzero;"/>
                </g>
            </g>
        </g>
    </g>
</svg>
